X: 1
T: Sisu v'simchu
C: Y.Paikov
M: 2/4
L: 1/8
K: Dm
|: "Dm"A,F FE | D4 | "A7"^CD ED | ^C4 | ^C2 E2 | E2 E2 | "Dm"(DE) "A7"(FE) | "Dm fine"D4 :|
[| "F"FA AA | A4 | FA cA | "Gm"G4 | "C7"G2 G2 | B2 G2 | "F"(FE) (FG) |     A4 ||
|| "F"FA AA | A4 | FA cA | "Gm"G4 |     B2 B2 | A2 G2 |    (BA) (GB) | "A7"A4 |]
